src/16/panel/nitroshare-indicator.svg

<svg xmlns="http://www.w3.org/2000/svg" width="16" height="16" version="1"><defs><style id="current-color-scheme" type="text/css">.ColorScheme-Text{color:#dfdfdf;}.ColorScheme-Highlight{color:#5294e2;}</style></defs><defs><style id="current-color-scheme" type="text/css"></style></defs><path d="M10 0L6 4H3v10h3v3l4-4h3V3h-3zM4 5h2l4 4V6h2v6h-2L6 8v3H4z" fill="currentColor" class="ColorScheme-Text"/></svg>

<svg xmlns="http://www.w3.org/2000/svg" width="16" height="16" version="1">
 <defs>
  <style id="current-color-scheme" type="text/css">
   .ColorScheme-Text { color:#dfdfdf; } .ColorScheme-Highlight { color:#4285f4; }
  </style>
 </defs>
 <path style="fill:currentColor" class="ColorScheme-Text" d="M 10,0 6,4 H 3 V 14 H 6 V 17 L 10,13 H 13 V 3 H 10 Z M 4,5 H 6 L 10,9 V 6 H 12 V 12 H 10 L 6,8 V 11 H 4 Z"/>
</svg>
